src/lib/packages/icons/src/assets/filled/arrow-right-from-line.svg

<svg width="24" height="24" viewBox="0 0 24 24" fill="none" xmlns="http://www.w3.org/2000/svg">
<path d="M21.7061 12.708L16.707 17.707C16.512 17.902 16.256 18 16 18C15.744 18 15.488 17.902 15.293 17.707C14.902 17.316 14.902 16.684 15.293 16.293L18.5859 13H7C6.447 13 6 12.552 6 12C6 11.448 6.447 11 7 11H18.5859L15.293 7.70703C14.902 7.31603 14.902 6.68397 15.293 6.29297C15.684 5.90197 16.316 5.90197 16.707 6.29297L21.7061 11.292C21.7991 11.385 21.8721 11.4949 21.9231 11.6179C22.0241 11.8619 22.0241 12.1381 21.9231 12.3821C21.8721 12.5051 21.7991 12.615 21.7061 12.708ZM4 5C3.447 5 3 5.448 3 6V18C3 18.552 3.447 19 4 19C4.553 19 5 18.552 5 18V6C5 5.448 4.553 5 4 5Z" fill="currentColor"/>
</svg>

<svg xmlns="http://www.w3.org/2000/svg" width="24" height="24" fill="none"><path fill="currentColor" d="m21.706 12.708-4.999 4.999a.997.997 0 0 1-1.414 0 .999.999 0 0 1 0-1.414L18.586 13H7a1 1 0 1 1 0-2h11.586l-3.293-3.293a.999.999 0 1 1 1.414-1.414l5 4.999a1 1 0 0 1 0 1.416ZM4 5a1 1 0 0 0-1 1v12a1 1 0 1 0 2 0V6a1 1 0 0 0-1-1Z"/></svg>
